packages/sources/icons/src/vitamix/filter-off-line.svg

<svg width="16" height="16" viewBox="0 0 16 16" xmlns="http://www.w3.org/2000/svg"><path fill-rule="evenodd" clip-rule="evenodd" d="M4.61933 0.666687L14.0467 10.0947L13.104 11.0374L10.5553 8.48935L10 9.32335V14.99H6V9.32335L2.66667 4.32335H2V2.99002H5.05667L3.67667 1.60935L4.61933 0.666687ZM6.38998 4.32332H4.26932L7.33332 8.91932V13.6567H8.66665V8.91932L9.59465 7.52798L6.38998 4.32332ZM14 4.32332V2.98998H8.8087L10.142 4.32332H11.7307L11.0954 5.27598L12.0567 6.23798L13.3334 4.32332H14Z"/></svg>

<svg width="16" height="16" xmlns="http://www.w3.org/2000/svg"><path fill-rule="evenodd" clip-rule="evenodd" d="m4.62.667 9.427 9.428-.943.942-2.549-2.548-.555.834v5.667H6V9.323l-3.333-5H2V2.99h3.057l-1.38-1.38.942-.943Zm1.77 3.656H4.27L7.332 8.92v4.738h1.334V8.919l.928-1.391L6.39 4.323Zm7.61 0V2.99H8.809l1.333 1.333h1.589l-.636.953.962.962 1.276-1.915H14Z"/></svg>
